icons/between-vertical-end.svg

<svg width="24" height="24" viewBox="0 0 24 24" fill="none" xmlns="http://www.w3.org/2000/svg">
<path d="M21 11.9213L21 5.57873C21 0.807092 14 0.807092 14 5.57872L14 11.9213C14 16.6929 21 16.6929 21 11.9213Z" stroke="black" stroke-width="2" stroke-linecap="round" stroke-linejoin="round"/>
<path d="M10 11.9213L10 5.57873C10 0.807092 3 0.807091 3 5.57873L3 11.9213C3 16.6929 10 16.6929 10 11.9213Z" stroke="black" stroke-width="2" stroke-linecap="round" stroke-linejoin="round"/>
<path d="M15.5 22C13.8739 21.0708 12.9147 19.5681 12 18C11.0853 19.5681 10.1261 21.0708 8.5 22" stroke="black" stroke-width="2" stroke-linecap="round" stroke-linejoin="round"/>
</svg>

<svg xmlns="http://www.w3.org/2000/svg" width="24" height="24" viewBox="0 0 24 24" fill="none" stroke="currentColor" stroke-width="2" stroke-linecap="round" stroke-linejoin="round">
<path d="M21 11.921V5.58c0-4.772-7-4.772-7 0v6.342c0 4.772 7 4.772 7 0m-11-.001V5.58c0-4.772-7-4.772-7 0v6.342c0 4.772 7 4.772 7 0M15.5 22c-1.626-.93-2.585-2.432-3.5-4-.915 1.568-1.874 3.07-3.5 4"/>
</svg>
